X:282
T: Bei der Nacht (42a), S. 135
N: T0171
O: Luxemburg
S: Singendes Volk, Esch-Alzette 1937 posth.]
N: Straen, fff Witry, 17.1.1933;
N: (42b)- idem;
N: (42c)- Monnerich, hhh Dominik Mller aus Esch_alz., 15.5.1915
R: Liebeslieder]
M: 4/4
L: 1/8
K: G
GA | B2B2B2A2 | G2D2G2
GB | d2d2d2c2 | B2z4
d2 | B2d2d2e2 | d4c2A2
G4A2c2 | B3AB2
GB | d2d2d2c2 | B2z4
d2 | B2d2d2e2 | d2c2B2A2
G4A2c2 | B3AB2
GB | d2d2d2c2 | B2z4

